src/pos-icons/boom-gate-up-outline.svg

<svg height="24" viewBox="0 0 24 24" width="24" xmlns="http://www.w3.org/2000/svg"><path d="m19.86 3c.55.96.22 2.18-.74 2.73l-10.12 5.85v8.42a1 1 0 0 1 1 1v1h-8v-1a1 1 0 0 1 1-1v-9a3 3 0 0 1 3-3c.31 0 .62.06.92.16l10.2-5.89c.97-.56 2.19-.23 2.74.73m-12.36 17v-6.4c-.93.54-2.07.54-3 0v6.4zm-1.5-7.5a1.5 1.5 0 0 0 1.5-1.5 1.5 1.5 0 0 0 -1.5-1.5 1.5 1.5 0 0 0 -1.5 1.5 1.5 1.5 0 0 0 1.5 1.5m4.4-2.88 1.3-.75-2.3-1-1.3.75zm3.46-2 1.3-.75-2.3-1-1.3.75zm3.47-2 1.29-.75-2.29-1-1.3.75zm-1.33 14.38v-5h-3l4-3.84 4 3.84h-3v5z"/></svg>

<?xml version="1.0" encoding="UTF-8"?><!DOCTYPE svg PUBLIC "-//W3C//DTD SVG 1.1//EN" "http://www.w3.org/Graphics/SVG/1.1/DTD/svg11.dtd"><svg xmlns="http://www.w3.org/2000/svg" xmlns:xlink="http://www.w3.org/1999/xlink" version="1.1" id="mdi-boom-gate-up-outline" width="24" height="24" viewBox="0 0 24 24"><path d="M19.86,3C20.41,3.96 20.08,5.18 19.12,5.73L9,11.58V20A1,1 0 0,1 10,21V22H2V21A1,1 0 0,1 3,20V11A3,3 0 0,1 6,8C6.31,8 6.62,8.06 6.92,8.16L17.12,2.27C18.09,1.71 19.31,2.04 19.86,3M7.5,20V13.6C6.57,14.14 5.43,14.14 4.5,13.6V20H7.5M6,12.5A1.5,1.5 0 0,0 7.5,11A1.5,1.5 0 0,0 6,9.5A1.5,1.5 0 0,0 4.5,11A1.5,1.5 0 0,0 6,12.5M10.4,9.62L11.7,8.87L9.4,7.87L8.1,8.62L10.4,9.62M13.86,7.62L15.16,6.87L12.86,5.87L11.56,6.62L13.86,7.62M17.33,5.62L18.62,4.87L16.33,3.87L15.03,4.62L17.33,5.62M16,20V15H13L17,11.16L21,15H18V20H16Z" /></svg>
